tenants/businesswise/icons/channel_threads.svg

<svg fill="none" height="32" viewBox="0 0 32 32" width="32" xmlns="http://www.w3.org/2000/svg" xmlns:xlink="http://www.w3.org/1999/xlink"><clipPath id="a"><path d="m0 0h32v32h-32z"/></clipPath><g clip-path="url(#a)" fill="#000"><path clip-rule="evenodd" d="m16 1.88235c-7.79696 0-14.11765 6.32069-14.11765 14.11765 0 7.797 6.32069 14.1176 14.11765 14.1176 7.797 0 14.1176-6.3206 14.1176-14.1176 0-7.79696-6.3206-14.11765-14.1176-14.11765zm-16 14.11765c0-8.83656 7.16344-16 16-16 8.8366 0 16 7.16344 16 16 0 8.8366-7.1634 16-16 16-8.83656 0-16-7.1634-16-16z" fill-rule="evenodd"/><path d="m14.321 14.016c-.27-.18-1.166-.802-1.166-.802.756-1.081 1.753-1.502 3.132-1.502.975 0 1.803.327 2.394.948s.928 1.509 1.005 2.644c.328.138.6297.2993.905.484 1.109.745 1.719 1.86 1.719 3.137 0 2.716-2.226 5.075-6.256 5.075-3.46 0-7.054-2.013-7.054-8.006 0-5.96 3.482-7.994 7.044-7.994 1.646 0 5.506.243 6.956 5.036l-1.36.353c-1.124-3.415-3.477-3.959-5.634-3.959-3.565 0-5.582 2.171-5.582 6.79 0 4.143 2.254 6.343 5.63 6.343 2.777 0 4.847-1.443 4.847-3.556 0-1.438-1.208-2.127-1.27-2.127-.236 1.234-.868 3.31-3.644 3.31-1.618 0-3.013-1.118-3.013-2.582 0-2.09 1.984-2.847 3.55-2.847.586 0 1.294.04 1.663.114 0-.637-.54-1.728-1.9-1.728-1.25 0-1.566.405-1.967.868zm2.395 2.174c-2.04 0-2.304.87-2.304 1.416 0 .878 1.043 1.168 1.6 1.168 1.02 0 2.067-.282 2.232-2.423-.5007-.1168-1.014-.1709-1.528-.161z"/></g></svg>

<svg width="32" height="32" viewBox="0 0 32 32" fill="none" xmlns="http://www.w3.org/2000/svg">
<g clip-path="url(#clip0_2369_17673)">
<path fill-rule="evenodd" clip-rule="evenodd" d="M16 1.88235C8.20304 1.88235 1.88235 8.20304 1.88235 16C1.88235 23.797 8.20304 30.1176 16 30.1176C23.797 30.1176 30.1176 23.797 30.1176 16C30.1176 8.20304 23.797 1.88235 16 1.88235ZM0 16C0 7.16344 7.16344 0 16 0C24.8366 0 32 7.16344 32 16C32 24.8366 24.8366 32 16 32C7.16344 32 0 24.8366 0 16Z" fill="black"/>
<path d="M14.321 14.016C14.051 13.836 13.155 13.214 13.155 13.214C13.911 12.133 14.908 11.712 16.287 11.712C17.262 11.712 18.09 12.039 18.681 12.66C19.272 13.281 19.609 14.169 19.686 15.304C20.014 15.442 20.3157 15.6033 20.591 15.788C21.7 16.533 22.31 17.648 22.31 18.925C22.31 21.641 20.084 24 16.054 24C12.594 24 9 21.987 9 15.994C9 10.034 12.482 8 16.044 8C17.69 8 21.55 8.243 23 13.036L21.64 13.389C20.516 9.974 18.163 9.43 16.006 9.43C12.441 9.43 10.424 11.601 10.424 16.22C10.424 20.363 12.678 22.563 16.054 22.563C18.831 22.563 20.901 21.12 20.901 19.007C20.901 17.569 19.693 16.88 19.631 16.88C19.395 18.114 18.763 20.19 15.987 20.19C14.369 20.19 12.974 19.072 12.974 17.608C12.974 15.518 14.958 14.761 16.524 14.761C17.11 14.761 17.818 14.801 18.187 14.875C18.187 14.238 17.647 13.147 16.287 13.147C15.037 13.147 14.721 13.552 14.32 14.015L14.321 14.016ZM16.716 16.19C14.676 16.19 14.412 17.06 14.412 17.606C14.412 18.484 15.455 18.774 16.012 18.774C17.032 18.774 18.079 18.492 18.244 16.351C17.7433 16.2342 17.23 16.1801 16.716 16.19Z" fill="black"/>
</g>
<defs>
<clipPath id="clip0_2369_17673">
<rect width="32" height="32" fill="white"/>
</clipPath>
</defs>
</svg>
